svgs/sharp-light/arrow-trend-up.svg

<svg xmlns="http://www.w3.org/2000/svg" viewBox="0 0 576 512"><!--! Font Awesome Pro 7.1.0 by @fontawesome - https://fontawesome.com License - https://fontawesome.com/license (Commercial License) Copyright 2025 Fonticons, Inc. --><path fill="currentColor" d="M368 96l208 0 0 208-32 0 0-153.4-212.7 212.7-11.3 11.3-11.3-11.3-116.7-116.7-164.7 164.7-22.6-22.6 176-176 11.3-11.3 11.3 11.3 116.7 116.7 201.4-201.4-153.4 0 0-32z"/></svg>

<svg xmlns="http://www.w3.org/2000/svg" viewBox="0 0 576 512"><!--! Font Awesome Pro 6.6.0 by @fontawesome - https://fontawesome.com License - https://fontawesome.com/license (Commercial License) Copyright 2024 Fonticons, Inc. --><path d="M368 96l16 0 176 0 16 0 0 16 0 176 0 16-32 0 0-16 0-137.4L331.3 363.3 320 374.6l-11.3-11.3L192 246.6 27.3 411.3 4.7 388.7l176-176L192 201.4l11.3 11.3L320 329.4 521.4 128 384 128l-16 0 0-32z"/></svg>
